X: 1
T: Lliw'r Heulwen
M: 2/4
L: 1/8
R: polka
K: Edor
|:E|G G F E|E2 B A|G B F> G|E3 E|
G A G F|E2 G A|G B F> G|E2 E d|
d> B G> F|E2 B A|G B B G|F3 E|
G G F E|E2 B A|G B F> G|E3:|
